outputs/icons/content/copy_file_sharp.svg

<svg xmlns="http://www.w3.org/2000/svg" width="1200" height="1200" fill="none"><g clip-path="url(#a)"><path fill="#000" d="M800 50H100v800h100V150h600zm-50 200 300 300v600H300V250zm-50 350h275L700 325z"/></g><defs><clipPath id="a"><path fill="#fff" d="M0 0h1200v1200H0z"/></clipPath></defs></svg>

<svg width="1200" height="1200" viewBox="0 0 1200 1200" fill="none" xmlns="http://www.w3.org/2000/svg"><g clip-path="url(#clip0_122_134)"><path d="M800 50H100V850H200V150H800V50ZM750 250L1050 550V1150H300V250H750ZM700 600H975L700 325V600Z" fill="#1D1E23"/></g><defs><clipPath id="clip0_122_134"><path width="24" fill="white" d="M0 0H1200V1200H0V0z"/></clipPath></defs></svg>
